X: 1
P:The Man from Skye
C:by P/M Donald MacLeod (from S.G.)
C:Arr. by Barbara McOwen
R:Reel
M:4/4
L:1/8
K:Eb
|: ce| "Bbm"f2 f2 effe|"Bbm"cffe "Eb7"c2 B2|"Ab"AAAc A2 c2|"Ab"Acce "Fm"c2 e2|"Bbm"f2 f2 effe|"Bbm"cffe "Ab"c2 BA|"Ebm"B2 Bc "Fm7"f2 ec|"Bbm"B4 B2 :|
ce|"Bbm"f2 a2 "Eb7"b2 fg|"Ab"agfe c2 B2|"Ab"AAAc A2 c2|"Ab"Acce "Fm7"c2 e2|"Bbm"fgaf "Eb7"b2 b2|"Ab"agfe "Fm7"c2 BA|"Bbm"B2 Bc "Fm7"f2 ec|"Bbm"B4 B2 ce ||
"Bbm"f2 a2 "Eb7"b2 fg|"Ab"agfe c2 B2|"Ab"AAAc A2 c2|"Ab"Acce "Fm7"c2 e2|"Bbm"f2 fe "Ab"effe|"Gb"cffe "Fm7"c2 BA|"Ebm"B2 Bc "Fm7"f2 ec|"Bbm"B4 B2 |]
